packages/design-system/src/images/image.svg

<?xml version="1.0" encoding="UTF-8"?>
<svg width="16px" height="12px" viewBox="0 0 16 12" version="1.1" xmlns="http://www.w3.org/2000/svg" xmlns:xlink="http://www.w3.org/1999/xlink">
    <!-- Generator: Sketch 55.2 (78181) - https://sketchapp.com -->
    <title>Icon / Image</title>
    <desc>Created with Sketch.</desc>
    <g id="Page-1" stroke="none" stroke-width="1" fill="none" fill-rule="evenodd">
        <g id="image" fill="#000000">
            <g id="Icon-/-Image">
                <g id="file-icon">
                    <path d="M15,0 C15.5546875,0 16,0.4453125 16,1 L16,11 C16,11.5546875 15.5546875,12 15,12 L1,12 C0.4453125,12 0,11.5546875 0,11 L0,1 C0,0.4453125 0.4453125,0 1,0 L15,0 Z M3.5,2 C2.6640625,2 2,2.6640625 2,3.5 C2,4.3359375 2.6640625,5 3.5,5 C4.3359375,5 5,4.3359375 5,3.5 C5,2.6640625 4.3359375,2 3.5,2 Z M14,10 L10,4 L6.3359375,8.66406253 L4,7 L2,10 L14,10 Z" id="Shape" fill-rule="nonzero"></path>
                </g>
            </g>
        </g>
    </g>
</svg>

<svg width="16" height="12" xmlns="http://www.w3.org/2000/svg">
    <path d="M15 0c.555 0 1 .445 1 1v10c0 .555-.445 1-1 1H1c-.555 0-1-.445-1-1V1c0-.555.445-1 1-1h14zM3.5 2C2.664 2 2 2.664 2 3.5S2.664 5 3.5 5 5 4.336 5 3.5 4.336 2 3.5 2zM14 10l-4-6-3.664 4.664L4 7l-2 3h12z" fill-rule="nonzero" fill="#000"/>
</svg>
